X:8
T: Die wiedergefundene Schwester (Suedeli - Ballade)
N: Q0072G
O: Mitteleuropa, Deutschland / Frankreich, Lothringen, Hassenburg
R: Ballade, Entfuehrung, Adelige als Dienstmagd, Rueckkehr
M: 3/4
L: 1/16
K: G
D4 | G4G4G2G2 | A4A4B2B2 | c12 | G4z4
B2c2 | d6e2d4 | A4A4d4 | d4c4B4 | A4z4
d3c | B4A4B4 | G4G4B4 | G4A4B4 | A4z4
B4 | G4G4e4 | d6c2B2d2 | d2c2B4A4 | G4z4
B4 | G4G4e4 | d6c2B2d2 | d2c2B4A4 | G4z4

